public/static/img/user/password_trade.svg

<svg width="24" height="24" viewBox="0 0 24 24" fill="none" xmlns="http://www.w3.org/2000/svg">
<path d="M20.28 21.9951H4.53C3.72 22.0784 3 21.0787 3 20.5788V11.1644C3 10.1647 4.17 9.49816 4.8 9.49816H5.7V6.99878C5.7 4.16614 8.94 2 12 2C15.06 2 18.3 4.16614 18.3 6.99878V9.49816H19.2C19.92 9.49816 21 10.0814 21 11.1644V20.5788C20.91 21.0787 21.09 21.9951 20.28 21.9951ZM16.41 6.99878C16.41 5.08258 13.98 3.66626 11.91 3.66626C9.84 3.66626 7.41 5.08258 7.41 6.99878V9.49816H16.41V6.99878ZM19.11 11.1644H4.71V20.3288H19.11L19.38 20.5788L19.11 11.1644Z" fill="white"/>
<path d="M10.0556 14.7222L9.46677 15.251L8.69922 14.3472L11.2225 12.0762V18.7991H10.0556V14.7222ZM14.1432 16.1549L14.732 15.6261L15.4996 16.53L12.9763 18.7991V12.078H14.1432V16.1549Z" fill="white"/>
</svg>

<svg width="24" height="24" fill="none" xmlns="http://www.w3.org/2000/svg"><path d="M20.28 21.995H4.53C3.72 22.078 3 21.08 3 20.58v-9.415c0-1 1.17-1.666 1.8-1.666h.9v-2.5C5.7 4.167 8.94 2 12 2c3.06 0 6.3 2.166 6.3 4.999v2.5h.9c.72 0 1.8.582 1.8 1.665v9.415c-.09.5.09 1.416-.72 1.416ZM16.41 7c0-1.916-2.43-3.333-4.5-3.333S7.41 5.083 7.41 7v2.5h9V7Zm2.7 4.165H4.71v9.165h14.4l.27.25-.27-9.415Z" fill="#fff"/><path d="m10.056 14.722-.59.529-.767-.904 2.524-2.27v6.722h-1.167v-4.077Zm4.087 1.433.589-.529.768.904-2.524 2.27v-6.722h1.167v4.077Z" fill="#fff"/></svg>
